src/ex12_js_dom/images/user-avatar.svg

<svg width="40" height="40" viewBox="0 0 40 40" fill="none" xmlns="http://www.w3.org/2000/svg">
<g clip-path="url(#clip0)">
<path d="M20 39.2C30.6039 39.2 39.2 30.6039 39.2 20C39.2 9.39612 30.6039 0.799988 20 0.799988C9.39612 0.799988 0.799988 9.39612 0.799988 20C0.799988 30.6039 9.39612 39.2 20 39.2Z" stroke="white" stroke-width="2" stroke-miterlimit="10" stroke-linecap="round"/>
<path d="M23.9464 28.4224C23.8296 27.1328 23.8744 26.2328 23.8744 25.0544C24.4584 24.748 25.5048 22.7944 25.6816 21.144C26.1408 21.1064 26.8648 20.6584 27.0768 18.8896C27.1912 17.94 26.7368 17.4056 26.46 17.2376C27.2072 14.9904 28.7592 8.03841 23.5896 7.32001C23.0576 6.38561 21.6952 5.91281 19.9248 5.91281C12.8416 6.04321 11.9872 11.2616 13.54 17.2376C13.264 17.4056 12.8096 17.94 12.9232 18.8896C13.136 20.6584 13.8592 21.1064 14.3184 21.144C14.4944 22.7936 15.5824 24.748 16.168 25.0544C16.168 26.2328 16.212 27.1328 16.0952 28.4224C15.0864 31.1344 9.90561 31.3464 6.91681 33.9616C10.0416 37.108 15.1056 39.3584 20.4496 39.3584C25.7936 39.3584 32.0752 35.1392 33.1208 33.988C30.1504 31.3488 24.9576 31.144 23.9464 28.4224Z" fill="black"/>
</g>
<defs>
<clipPath id="clip0">
<rect width="40" height="40" fill="white"/>
</clipPath>
</defs>
</svg>

<svg width="40" height="40" fill="none" xmlns="http://www.w3.org/2000/svg"><g clip-path="url(#clip0)"><path d="M20 39.2c10.604 0 19.2-8.596 19.2-19.2S30.604.8 20 .8.8 9.396.8 20 9.396 39.2 20 39.2z" stroke="#fff" stroke-width="2" stroke-miterlimit="10" stroke-linecap="round"/><path d="M23.946 28.422c-.116-1.29-.072-2.19-.072-3.368.584-.306 1.63-2.26 1.808-3.91.459-.038 1.183-.486 1.395-2.254.114-.95-.34-1.484-.617-1.652.747-2.248 2.3-9.2-2.87-9.918-.532-.934-1.895-1.407-3.665-1.407-7.083.13-7.938 5.349-6.385 11.325-.276.168-.73.702-.617 1.652.213 1.768.936 2.216 1.395 2.254.176 1.65 1.264 3.604 1.85 3.91 0 1.179.044 2.079-.073 3.368-1.009 2.712-6.19 2.924-9.178 5.54 3.125 3.146 8.189 5.396 13.533 5.396 5.344 0 11.625-4.219 12.67-5.37-2.97-2.64-8.162-2.844-9.174-5.566z" fill="#000"/></g><defs><clipPath id="clip0"><path fill="#fff" d="M0 0h40v40H0z"/></clipPath></defs></svg>
